X:1
T:Seychelles, 76.86 D
T:Seychelles, 76.86 D
T:James Ramsey Murray, 1870
T:Public Domain Courtesy of the Cyber Hymnal™
C:James Ramsey Murray, 1870
Z:Public Domain
Z:Courtesy of the Cyber Hymnal™
%%score ( 1 2 ) ( 3 4 )
L:1/8
Q:1/4=110
M:4/4
K:F
V:1 treble 
V:2 treble 
V:3 bass 
V:4 bass 
V:1
 [Fc]2 | [Fc]2 [FA]2 [FG]2 F2 | (B4 A2) [FA]2 | [EG]2 [CF]2 [CE]2 [CF]2 | [CG]6 [CG]2 | %5
 [^CA]3 [CA] [DF]2 [DF]2 | [DG]3 [DG] [CE]2 E2 | [DF]2 [DG]2 [FA]2 [F=B]2 | [Ec]6 [Ed]2 | %9
 [Fc]2 [FA]2 [FG]2 F2 | (B4 A2) [FA]2 | [EG]2 [CF]2 [CE]2 [CF]2 | [CG]6 [CG]2 | %13
 [^CA]3 [CA] [DF]2 [DF]2 | [DB]3 [DB] [EG]2 [EG]2 | [Fc]3 [FB] [FA]2 [EG]2 | F6 |] %17
V:2
 x2 | x6 F2 | F6 x2 | x8 | x8 | x8 | x6 E2 | x8 | x8 | x6 F2 | F6 x2 | x8 | x8 | x8 | x8 | x8 | %16
 F6 |] %17
V:3
 [F,A,]2 | [F,A,]2 [F,C]2 [F,B,]2 [F,A,]2 | (D4 C2) [F,C]2 | [C,B,]2 [C,A,]2 [C,G,]2 [C,A,]2 | %4
 [C,E,]6 [C,E,]2 | [A,,E,]3 [A,,A,] [D,A,]2 [D,A,]2 | [G,,B,]3 [G,,B,] [C,G,]2 [C,B,]2 | %7
 [D,A,]2 [D,A,]2 [G,,G,]2 [G,,G,]2 | [C,G,]6 [C,B,]2 | [F,A,]2 [F,C]2 [F,B,]2 [F,A,]2 | %10
 (D4 C2) [F,C]2 | [C,B,]2 [C,A,]2 [C,G,]2 [C,A,]2 | [C,E,]6 [C,E,]2 | %13
 [A,,E,]3 [A,,A,] [D,A,]2 [D,A,]2 | [G,,G,]3 [G,,G,] [C,G,]2 [B,,C]2 | %15
 [A,,C]3 [B,,D] [C,C]2 [C,B,]2 | [F,A,]6 |] %17
V:4
 x2 | x8 | F,6 x2 | x8 | x8 | x8 | x8 | x8 | x8 | x8 | F,6 x2 | x8 | x8 | x8 | x8 | x8 | x6 |] %17

